X:1
T:Title
%%score ( 1 2 ) ( 3 4 )
L:1/8
Q:1/4=100
M:4/4
K:Eb
V:1 treble nm="Grand Piano, Soprano"
V:2 treble 
V:3 bass nm="Choir Pad, As Flows the River"
V:4 bass 
V:1
 E>F [EG]2 [EG]2 [EG][EG] | [FA][EG] [DF]6 | [DF]2 [DF]2 [DF][DF] [CE]2 | [DF]2 [EG]6 | %4
w: By~William~Savage~Pitts * * * * *||||
 E>F [EG]2 [EG]2 [EG][EG] | [FA][EG] [DF]2 [DF]2 [DF][DF] | .G2 z2 z4 | [DF]2 E6 | %8
w: ||||
 [EG]>[FA] [GB]2 [GB]2 [GB][GB] | [Ac][Ad] e2- [Ge-][Ge-] [Ge]2 | [Ge]2 [Fd]2 [Fd]2 [Ec]2 | %11
w: |||
 [Fd]2 [Ge]2 [Ac]2 [GB]2 | [EG]>[FA] [GB]2 [GB]2 [GB][GB] | [Ac][GB] [EG]2 [EG]2 [EG][EG] | %14
w: |||
 .A2 z2 z4 | z2 E6- | E6 z2 |] %17
w: |||
V:2
 x8 | x8 | x8 | x8 | x8 | x8 | D-[DF] E2 E2 [DF]2 | x8 | x8 | z2 G2 z4 | x8 | x8 | x8 | x8 | %14
 E-[EG] [DF]2 [DF]2 [DG]2 | [DF]2 z2 C2 B,2- | B,6 z2 |] %17
V:3
 [E,G,]>A, [E,B,]2 [E,B,]2 [E,B,][E,B,] | [D,B,][E,B,] [B,,B,]6 | %2
 [B,,B,]2 [B,,A,]2 [B,,A,][B,,A,] [C,G,]2 | [B,,B,]2 [E,B,]6 | %4
 [E,G,]>A, [E,B,]2 [E,B,]2 [E,B,][E,B,] | B,2 z2 z4 | .B,2 z2 z4 | [B,,A,]2 [E,G,]6 | %8
 [E,B,]2 [E,E]2 [E,E]2 [E,E][E,E] | [E,E][E,B,] [E,B,]2 [E,B,][E,B,] [E,B,]2 | %10
 [E,B,]2 [B,,B,]2 [B,,A,]2 [C,G,]2 | [B,,B,]2 [E,B,]6 | [E,B,]2 [E,E]2 [E,E]2 [E,E][E,E] | %13
 [E,E]2 [E,B,]2 [E,B,]2 [E,B,][E,B,] | .C2 z2 z4 | z2 G,2 z4 | z8 |] %17
V:4
 x8 | x8 | x8 | x8 | x8 | D,E, [B,,A,]2 [B,,A,]2 [B,,A,][B,,A,] | %6
 B,,-[B,,A,] [C,G,]2 [C,G,]2 [B,,B,]2 | x8 | x8 | x8 | x8 | x8 | x8 | x8 | %14
 E,-[E,B,] [B,,A,]2 [B,,A,]2 [B,,B,]2 | [B,,A,]2 E,2- [E,-A,]2 [E,G,]2- | [E,G,]6 z2 |] %17

